icons/4_Outdated/Private Internet Access v1.svg

<svg width="1024" height="1024" viewBox="0 0 1024 1024" fill="none" xmlns="http://www.w3.org/2000/svg">
<g clip-path="url(#clip0_3_650)">
<path d="M512 1024C794.77 1024 1024 794.77 1024 512C1024 229.23 794.77 0 512 0C229.23 0 0 229.23 0 512C0 794.77 229.23 1024 512 1024Z" fill="#98DC9A"/>
<path d="M715.42 435.95H693V415.95C693 316.56 612 236 512 236C412 236 331 316.56 331 415.94V435.94H308.56C302.986 435.919 297.463 436.997 292.306 439.113C287.149 441.229 282.46 444.34 278.507 448.27C274.554 452.2 271.415 456.871 269.269 462.015C267.122 467.159 266.012 472.676 266 478.25V643.44C266 654.44 266.71 662.44 271 668.27C275.47 674.12 283 676.2 294.17 676.17H330.17L335.67 763.17V764.17C335.641 768.597 336.742 772.958 338.87 776.84C341.75 781.96 347.79 786.54 357.56 786.46H449.07L496.59 736H532.1L578 788H660.08C667.15 788 673.63 788.14 679.23 784.58C684.83 781.02 688.22 774 689.84 762C692.2 744.46 692.75 696.48 693.84 676.24H729.84C740.91 676.24 748.14 675.15 752.84 670.11C757.37 664.97 757.97 657.65 758.03 646.66V478.25C757.985 466.991 753.471 456.211 745.481 448.28C737.491 440.348 726.679 435.913 715.42 435.95ZM752.76 646.95C752.82 657.78 751.76 663.83 749.05 666.63C746.56 669.54 741.11 670.95 730.26 670.92H688.86L688.72 673.59C687.72 692.68 687.05 743.73 684.65 761.59C683.09 773.12 680.08 778.01 676.6 780.26C673.12 782.51 667.71 782.8 660.54 782.77H581L535 730.77H494.48L446.93 781.2H357.82C349.7 781.12 346.24 778 344.04 774.4C342.429 771.357 341.591 767.964 341.6 764.52V763.53L335.72 670.9H294.43C283.67 670.9 278.51 668.9 275.78 665.25C272.89 661.55 271.86 654.6 271.89 643.8V478.56C271.932 468.807 275.843 459.469 282.763 452.596C289.683 445.723 299.047 441.876 308.8 441.9H336.89V416.23C337.05 319.93 415.42 242.03 512.33 241.87C609.22 242.03 687.61 319.93 687.79 416.23V441.9H715.89C725.64 441.879 734.999 445.727 741.914 452.601C748.828 459.474 752.733 468.81 752.77 478.56L752.76 646.95ZM708.48 722.73H700.11C700.59 708.11 700.96 693.9 701.45 685.03H737.56C739.56 685.03 741.41 684.97 743.17 684.89V688C743.173 692.558 742.277 697.071 740.535 701.283C738.793 705.495 736.239 709.322 733.017 712.546C729.796 715.77 725.971 718.328 721.761 720.074C717.551 721.82 713.038 722.719 708.48 722.72V722.73ZM321.48 685.25L323.85 722.73H312.6C308.062 722.708 303.572 721.792 299.387 720.034C295.203 718.277 291.405 715.713 288.212 712.488C285.019 709.263 282.492 705.44 280.776 701.239C279.059 697.037 278.188 692.539 278.21 688V684.89C280.677 685.164 283.158 685.291 285.64 685.27L321.48 685.25ZM676.09 760.12C675.01 768.12 673.16 771.89 671.91 772.69L671.82 772.75H671.77C670.23 773.75 664.11 773.75 661.77 773.75H584.9L541.51 724.67L539.58 722.49C539.377 722.26 539.128 722.077 538.849 721.951C538.569 721.825 538.266 721.76 537.96 721.76H491.73C491.436 721.76 491.145 721.821 490.875 721.938C490.605 722.055 490.362 722.226 490.16 722.44L488.25 724.44L443.25 772.15H357.91C353.08 772.1 352.22 770.76 351.49 769.58C350.68 767.895 350.257 766.05 350.25 764.18V763.28C350.257 763.183 350.257 763.087 350.25 762.99V762.55L345.72 691.16H679.43C679.35 693.7 679.27 696.35 679.19 699.07C678.52 721.12 677.69 748.44 676.13 760.12H676.09ZM688.81 670.9V682.66H335.74V670.9H688.81ZM278.4 643.47C278.4 644.94 278.4 646.29 278.45 647.53C278.45 646.29 278.4 644.94 278.4 643.47ZM278.87 653.76C278.97 654.61 279.08 655.37 279.2 656.04C279.08 655.36 279 654.6 278.87 653.76ZM715.87 450.2H687.82C685.535 450.197 683.344 449.288 681.728 447.672C680.112 446.056 679.203 443.865 679.2 441.58V415.9C679.21 394.112 674.89 372.54 666.492 352.436C658.094 332.332 645.785 314.097 630.28 298.79C598.935 267.649 556.545 250.171 512.36 250.171C468.175 250.171 425.785 267.649 394.44 298.79C378.935 314.1 366.628 332.339 358.233 352.447C349.839 372.555 345.524 394.13 345.54 415.92V441.58C345.54 443.867 344.632 446.061 343.016 447.679C341.4 449.297 339.207 450.207 336.92 450.21H308.84C301.385 450.202 294.228 453.14 288.929 458.384C283.63 463.629 280.619 470.755 280.55 478.21V643.47C280.55 655.95 282.11 658.97 282.61 659.6L282.74 659.76C283.12 660.27 285.09 661.93 294.49 661.94H333.6V459.77H343.67V661.95H680.93V459.77H691V662H730.64C739.81 662 742.26 660.82 742.64 660.59L742.77 660.45C742.95 660.14 744.23 657.56 744.16 646.71V478.24C744.105 470.784 741.104 463.652 735.812 458.4C730.52 453.147 723.366 450.2 715.91 450.2H715.87ZM546.58 624.88H472.2V569.42H546.58V624.88ZM474.81 563.55C478.37 547.2 492.54 534.86 509.71 534.84C526.88 534.82 541.06 547.19 544.63 563.55H535.79C532.42 551.84 522.02 543.34 509.73 543.32C497.44 543.3 487.04 551.83 483.73 563.55H474.81ZM622.92 445.45H400.43V412.91C400.43 351.6 450.24 301.91 511.69 301.91C526.283 301.894 540.735 304.753 554.223 310.323C567.711 315.892 579.969 324.064 590.299 334.371C600.628 344.679 608.827 356.92 614.426 370.395C620.024 383.871 622.914 398.318 622.93 412.91L622.92 445.45ZM465 411.52H564.2V423.31H465V411.52ZM495.67 362.26C495.67 358.196 494.465 354.222 492.207 350.843C489.949 347.464 486.739 344.83 482.984 343.274C479.229 341.719 475.097 341.312 471.111 342.105C467.125 342.898 463.463 344.855 460.589 347.729C457.715 350.603 455.758 354.265 454.965 358.251C454.172 362.237 454.579 366.369 456.134 370.124C457.69 373.879 460.324 377.089 463.703 379.347C467.082 381.605 471.056 382.81 475.12 382.81C477.82 382.813 480.495 382.283 482.99 381.251C485.486 380.22 487.754 378.707 489.664 376.798C491.574 374.89 493.09 372.623 494.124 370.129C495.158 367.634 495.69 364.96 495.69 362.26H495.67ZM548.19 341.71C544.126 341.71 540.152 342.915 536.773 345.173C533.394 347.431 530.76 350.641 529.204 354.396C527.649 358.151 527.242 362.283 528.035 366.269C528.828 370.255 530.785 373.917 533.659 376.791C536.533 379.665 540.195 381.622 544.181 382.415C548.167 383.208 552.299 382.801 556.054 381.246C559.809 379.69 563.019 377.056 565.277 373.677C567.535 370.298 568.74 366.324 568.74 362.26C568.743 356.812 566.581 351.585 562.732 347.73C558.882 343.874 553.658 341.705 548.21 341.7L548.19 341.71Z" fill="white"/>
</g>
<defs>
<clipPath id="clip0_3_650">
<rect width="1024" height="1024" fill="white"/>
</clipPath>
</defs>
</svg>

<svg xmlns="http://www.w3.org/2000/svg" width="1024" height="1024" fill="none">
   <g clip-path="url(#a)">
      <path fill="#98DC9A" d="M512 1024c282.77 0 512-229.23 512-512S794.77 0 512 0 0 229.23 0 512s229.23 512 512 512Z"/>
      <path fill="#fff" d="M715.42 435.95H693v-20C693 316.56 612 236 512 236s-181 80.56-181 179.94v20h-22.44a42.396 42.396 0 0 0-39.291 26.075A42.385 42.385 0 0 0 266 478.25v165.19c0 11 .71 19 5 24.83 4.47 5.85 12 7.93 23.17 7.9h36l5.5 87v1a26.003 26.003 0 0 0 3.2 12.67c2.88 5.12 8.92 9.7 18.69 9.62h91.51L496.59 736h35.51l45.9 52h82.08c7.07 0 13.55.14 19.15-3.42 5.6-3.56 8.99-10.58 10.61-22.58 2.36-17.54 2.91-65.52 4-85.76h36c11.07 0 18.3-1.09 23-6.13 4.53-5.14 5.13-12.46 5.19-23.45V478.25a42.47 42.47 0 0 0-42.61-42.3Zm37.34 211c.06 10.83-1 16.88-3.71 19.68-2.49 2.91-7.94 4.32-18.79 4.29h-41.4l-.14 2.67c-1 19.09-1.67 70.14-4.07 88-1.56 11.53-4.57 16.42-8.05 18.67-3.48 2.25-8.89 2.54-16.06 2.51H581l-46-52h-40.52l-47.55 50.43h-89.11c-8.12-.08-11.58-3.2-13.78-6.8a20.999 20.999 0 0 1-2.44-9.88v-.99l-5.88-92.63h-41.29c-10.76 0-15.92-2-18.65-5.65-2.89-3.7-3.92-10.65-3.89-21.45V478.56a36.819 36.819 0 0 1 36.91-36.66h28.09v-25.67c.16-96.3 78.53-174.2 175.44-174.36 96.89.16 175.28 78.06 175.46 174.36v25.67h28.1a36.8 36.8 0 0 1 36.88 36.66l-.01 168.39Zm-44.28 75.78h-8.37c.48-14.62.85-28.83 1.34-37.7h36.11c2 0 3.85-.06 5.61-.14V688a34.694 34.694 0 0 1-10.153 24.546 34.704 34.704 0 0 1-24.537 10.174v.01Zm-387-37.48 2.37 37.48H312.6a34.55 34.55 0 0 1-24.388-10.242A34.57 34.57 0 0 1 278.21 688v-3.11c2.467.274 4.948.401 7.43.38l35.84-.02Zm354.61 74.87c-1.08 8-2.93 11.77-4.18 12.57l-.09.06h-.05c-1.54 1-7.66 1-10 1H584.9l-43.39-49.08-1.93-2.18a2.159 2.159 0 0 0-1.62-.73h-46.23a2.151 2.151 0 0 0-1.57.68l-1.91 2-45 47.71h-85.34c-4.83-.05-5.69-1.39-6.42-2.57a12.572 12.572 0 0 1-1.24-5.4v-.9a2.005 2.005 0 0 0 0-.29v-.44l-4.53-71.39h333.71c-.08 2.54-.16 5.19-.24 7.91-.67 22.05-1.5 49.37-3.06 61.05h-.04Zm12.72-89.22v11.76H335.74V670.9h353.07ZM278.4 643.47c0 1.47 0 2.82.05 4.06 0-1.24-.05-2.59-.05-4.06Zm.47 10.29c.1.85.21 1.61.33 2.28-.12-.68-.2-1.44-.33-2.28Zm437-203.56h-28.05a8.632 8.632 0 0 1-8.62-8.62V415.9a164.453 164.453 0 0 0-48.92-117.11 167.31 167.31 0 0 0-235.84 0 164.439 164.439 0 0 0-48.9 117.13v25.66a8.631 8.631 0 0 1-8.62 8.63h-28.08a28.263 28.263 0 0 0-28.29 28v165.26c0 12.48 1.56 15.5 2.06 16.13l.13.16c.38.51 2.35 2.17 11.75 2.18h39.11V459.77h10.07v202.18h337.26V459.77H691V662h39.64c9.17 0 11.62-1.18 12-1.41l.13-.14c.18-.31 1.46-2.89 1.39-13.74V478.24a28.246 28.246 0 0 0-28.25-28.04h-.04ZM546.58 624.88H472.2v-55.46h74.38v55.46Zm-71.77-61.33c3.56-16.35 17.73-28.69 34.9-28.71 17.17-.02 31.35 12.35 34.92 28.71h-8.84c-3.37-11.71-13.77-20.21-26.06-20.23-12.29-.02-22.69 8.51-26 20.23h-8.92Zm148.11-118.1H400.43v-32.54c0-61.31 49.81-111 111.26-111a111.112 111.112 0 0 1 111.24 111l-.01 32.54ZM465 411.52h99.2v11.79H465v-11.79Zm30.67-49.26a20.55 20.55 0 1 0-20.55 20.55c2.7.003 5.375-.527 7.87-1.559a20.555 20.555 0 0 0 12.7-18.991h-.02Zm52.52-20.55a20.55 20.55 0 1 0 20.55 20.55 20.55 20.55 0 0 0-20.53-20.56l-.02.01Z"/>
   </g>
   <defs>
      <clipPath id="a">
         <path fill="#fff" d="M0 0h1024v1024H0z"/>
      </clipPath>
   </defs>
</svg>
